!!!OTL: "Nachtbesuch" HEUT IS JA GAR SO SCHOEN
!!!ARE: Europa, Mitteleuropa, Steiermark
!!!SCT: Z1243
!!!YEM: Copyright 1995, estate of Helmut Schaffrath.
**kern
*ICvox
*Ivox
*M3/4
*k[f#c#]
*D:
=1
{4a
4.b
8a
=2
4a
4g
4f#}
=3
{4dd
4.dd
8f#
=4
4f#
4e
4e}
=5
{4g
4g
4e
=6
4f#
8f#
8dd
8dd
8f#}
=7
{4a
4g
8g
8c#
=8
4d
4e
4f#}
=9
{4e
4.g
8e
=10
4f#
8f#
8dd
8dd
8f#}
=11
{4a
4g
8g
8c#
=12
2d
4r}
==
!!!AGN: Liebes - Lied
!!!ONB: ESAC (Essen Associative Code) Database: ZUCCAL
!!!AMT: simple triple
!!!AIN: vox
!!!EED: Helmut Schaffrath
!!!EEV: 1.0
*-
